X: 150
T: Dakou shao de ershi ke ya Twenty teeth whistling
L: 1/8
M: 2/4
K: C
G E E G [I:setbarnb 1]| 
A> c A G | 
c E E A | 
G4 | 
A E E A | 
A,> C G, A, | 
D/ C E/ D/ E/ C | 
A,4 |]

@@@ Tune index: 8818
